X:549
T:BAdd549-  [Slow Men of London]
S:Musical Miscellany, II, 1729
Q:1/4=120
L:1/4
M:6/4
K:Dm
^c|d2df2e|(^c2d)e3|f3e2d|^c3A2A|FGFcdc|\
FGFc2^c|d2A(BA)G|F3D2:|]

